img/logo.svg

<svg width="180" height="51" viewBox="0 0 180 51" fill="none" xmlns="http://www.w3.org/2000/svg">
<g clip-path="url(#clip0_865_1402)">
<path d="M54.7698 19.5383H45.5547V7.10938H46.7962V18.372H52.5549V7.10938H53.7983V18.372H55.9295V21.3961H54.7698V19.5383Z" fill="#0083C1"/>
<path d="M57.8066 7.10938H59.05V12.3218H65.3829V7.10938H66.6263V19.5383H65.3829V13.5395H59.05V19.5383H57.8066V7.10938Z" fill="#0083C1"/>
<path d="M68.418 8.32511V7.10938H75.2338V8.32511H72.4599V19.5383H71.1918V8.32511H68.418Z" fill="#0083C1"/>
<path d="M86.8111 19.5383H85.5164V10.0081L77.3146 19.5383H77.0352V7.10938H78.2785V16.8029L86.5317 7.10938H86.8111V19.5383Z" fill="#0083C1"/>
<path d="M45.5742 26.2734H58.2191V44.0915H56.4358V27.9698H47.3556V44.0915H45.5742V26.2734Z" fill="#0083C1"/>
<path d="M62.123 26.2734H65.6745C67.7107 26.2734 69.0852 26.3627 69.7963 26.5394C70.8153 26.7882 71.6481 27.3049 72.2945 28.0837C72.9409 28.8626 73.2641 29.8428 73.2641 31.0205C73.2641 32.2077 72.9485 33.186 72.3192 33.9572C71.688 34.7285 70.8191 35.2471 69.7126 35.513C68.9046 35.7068 67.3932 35.8036 65.1783 35.8036H63.9064V44.0877H62.1249V26.2734H62.123ZM63.9045 28.0173V34.0617L66.9236 34.0978C68.1441 34.0978 69.0358 33.9876 69.6024 33.7654C70.1689 33.5431 70.6119 33.1841 70.9351 32.6902C71.2583 32.1944 71.4199 31.6398 71.4199 31.0281C71.4199 30.4316 71.2583 29.8864 70.9351 29.3907C70.6119 28.8949 70.186 28.5415 69.6556 28.3326C69.1252 28.1236 68.2601 28.0173 67.0548 28.0173H63.9045Z" fill="#0083C1"/>
<path d="M84.899 25.8242C87.6006 25.8242 89.8611 26.7246 91.6805 28.5254C93.5 30.3262 94.4107 32.543 94.4107 35.1759C94.4107 37.784 93.5019 39.997 91.6862 41.813C89.8706 43.629 87.6557 44.5389 85.0453 44.5389C82.4008 44.5389 80.1688 43.6347 78.3493 41.8263C76.5299 40.0179 75.6211 37.8296 75.6211 35.2613C75.6211 33.5498 76.0356 31.9618 76.8645 30.501C77.6934 29.0402 78.8227 27.8948 80.2543 27.0684C81.684 26.2383 83.2335 25.8242 84.899 25.8242ZM84.9788 27.5566C83.6594 27.5566 82.4084 27.9005 81.2277 28.5881C80.0471 29.2758 79.1231 30.2009 78.4596 31.3634C77.7961 32.5278 77.4634 33.8253 77.4634 35.2556C77.4634 37.3737 78.1991 39.1612 79.6668 40.6201C81.1365 42.0789 82.9065 42.8084 84.9788 42.8084C86.3629 42.8084 87.6443 42.4722 88.8211 41.8016C89.9999 41.1311 90.9182 40.2136 91.5779 39.0491C92.2376 37.8847 92.5684 36.593 92.5684 35.1702C92.5684 33.7569 92.2376 32.4766 91.5779 31.333C90.9182 30.1895 89.9885 29.2739 88.7926 28.5881C87.593 27.9005 86.323 27.5566 84.9788 27.5566Z" fill="#0083C1"/>
<path d="M99.3224 44.0915H97.5391V26.2734H106.475V28.0173H99.3224V44.0915Z" fill="#0083C1"/>
<path d="M108.598 26.2734H112.149C114.185 26.2734 115.56 26.3627 116.271 26.5394C117.29 26.7882 118.123 27.3049 118.769 28.0837C119.415 28.8626 119.739 29.8428 119.739 31.0205C119.739 32.2077 119.423 33.186 118.794 33.9572C118.163 34.7285 117.294 35.2471 116.187 35.513C115.379 35.7068 113.868 35.8036 111.653 35.8036H110.381V44.0877H108.6V26.2734H108.598ZM110.381 28.0173V34.0617L113.4 34.0978C114.621 34.0978 115.512 33.9876 116.079 33.7654C116.645 33.5431 117.088 33.1841 117.412 32.6902C117.735 32.1944 117.896 31.6398 117.896 31.0281C117.896 30.4316 117.735 29.8864 117.412 29.3907C117.088 28.8949 116.663 28.5415 116.132 28.3326C115.604 28.1236 114.737 28.0173 113.531 28.0173H110.381Z" fill="#0083C1"/>
<path d="M122.891 26.2734H133.111V28.0173H124.674V33.602H133.039V35.3458H124.674V42.3477H133.039V44.0915H122.891V26.2734Z" fill="#0083C1"/>
<path d="M152.377 29.5798L150.971 30.6588C150.195 29.6501 149.263 28.8846 148.176 28.3641C147.088 27.8436 145.894 27.5833 144.594 27.5833C143.172 27.5833 141.854 27.9253 140.641 28.6072C139.428 29.2911 138.489 30.2067 137.824 31.3578C137.156 32.509 136.824 33.8026 136.824 35.2406C136.824 37.4118 137.569 39.2259 139.061 40.6791C140.552 42.1322 142.434 42.8598 144.704 42.8598C147.202 42.8598 149.29 41.8834 150.972 39.9287L152.379 40.9944C151.49 42.1246 150.381 42.9985 149.05 43.6158C147.721 44.2332 146.237 44.5428 144.596 44.5428C141.476 44.5428 139.016 43.5056 137.213 41.4294C135.702 39.678 134.947 37.5618 134.947 35.0829C134.947 32.4748 135.864 30.2807 137.693 28.4989C139.523 26.719 141.816 25.8281 144.573 25.8281C146.238 25.8281 147.74 26.1568 149.083 26.8159C150.421 27.4694 151.52 28.3926 152.377 29.5798Z" fill="#0083C1"/>
<path d="M172.141 29.5798L170.734 30.6588C169.959 29.6501 169.027 28.8846 167.939 28.3641C166.852 27.8436 165.658 27.5833 164.358 27.5833C162.936 27.5833 161.618 27.9253 160.405 28.6072C159.192 29.2911 158.253 30.2067 157.587 31.3578C156.92 32.509 156.587 33.8026 156.587 35.2406C156.587 37.4118 157.333 39.2259 158.825 40.6791C160.316 42.1322 162.198 42.8598 164.468 42.8598C166.966 42.8598 169.054 41.8834 170.736 39.9287L172.143 40.9944C171.253 42.1246 170.145 42.9985 168.814 43.6158C167.485 44.2332 166 44.5428 164.36 44.5428C161.24 44.5428 158.78 43.5056 156.977 41.4294C155.466 39.678 154.711 37.5618 154.711 35.0829C154.711 32.4748 155.627 30.2807 157.456 28.4989C159.287 26.719 161.58 25.8281 164.337 25.8281C166.002 25.8281 167.504 26.1568 168.846 26.8159C170.185 27.4694 171.284 28.3926 172.141 29.5798Z" fill="#0083C1"/>
<path d="M39.6448 6.46094C40.3426 6.46094 40.624 6.95293 40.2703 7.5551L30.2073 24.809C29.7016 25.622 29.1901 25.4321 28.8346 24.8299L18.6879 7.557C18.3343 6.95483 18.6157 6.46284 19.3153 6.46284H39.6448V6.46094Z" fill="#ED6824"/>
<path d="M15.8493 39.6456C15.5166 39.0852 15.5071 38.162 15.8303 37.5959L21.8914 27.1615C22.2849 26.4473 22.6537 26.1016 23.553 26.1016H28.3003C28.9524 26.1016 29.2775 26.5746 28.9524 27.1387L19.378 43.5929C19.0529 44.159 18.5338 44.1628 18.203 43.6024L15.8493 39.6456Z" fill="#ED6824"/>
<path d="M8.58998 25.5804C7.93597 25.5804 7.6736 25.1207 8.00441 24.5584L14.2327 13.9569C14.5655 13.3946 15.1054 13.3946 15.4362 13.9569L21.6645 24.5584C21.9953 25.1207 21.7311 25.5804 21.0771 25.5804H8.58998Z" fill="#ED6824"/>
</g>
<defs>
<clipPath id="clip0_865_1402">
<rect width="180" height="51" fill="white"/>
</clipPath>
</defs>
</svg>

<svg width="180" height="51" fill="none" xmlns="http://www.w3.org/2000/svg"><g clip-path="url(#clip0_865_1402)"><path d="M54.77 19.538h-9.215V7.11h1.241v11.263h5.759V7.109h1.243v11.263h2.131v3.024h-1.16v-1.858zM57.807 7.11h1.243v5.212h6.333V7.109h1.243v12.43h-1.243v-6H59.05v6h-1.243V7.108zm10.611 1.215V7.11h6.816v1.216H72.46v11.213h-1.268V8.325h-2.774zm18.393 11.213h-1.295v-9.53l-8.201 9.53h-.28V7.11h1.243v9.694l8.254-9.694h.28v12.43zm-41.237 6.735H58.22v17.819h-1.783V27.97h-9.08v16.122h-1.782V26.273zm16.549 0h3.551c2.037 0 3.411.09 4.122.266 1.02.25 1.852.766 2.498 1.545.647.779.97 1.759.97 2.936 0 1.188-.316 2.166-.945 2.937-.631.771-1.5 1.29-2.606 1.556-.808.194-2.32.29-4.535.29h-1.272v8.285h-1.781V26.273h-.002zm1.782 1.744v6.045l3.019.036c1.22 0 2.112-.11 2.678-.333a2.752 2.752 0 001.333-1.075 2.98 2.98 0 00.485-1.662c0-.596-.162-1.142-.485-1.637a2.668 2.668 0 00-1.28-1.058c-.53-.21-1.395-.316-2.6-.316h-3.15zm20.994-2.193c2.702 0 4.962.9 6.781 2.701 1.82 1.801 2.73 4.018 2.73 6.65 0 2.609-.908 4.822-2.724 6.638-1.815 1.816-4.03 2.726-6.64 2.726-2.645 0-4.877-.904-6.697-2.713-1.82-1.808-2.728-3.996-2.728-6.565 0-1.711.415-3.3 1.244-4.76a9.034 9.034 0 013.39-3.433 9.094 9.094 0 014.644-1.244zm.08 1.733c-1.32 0-2.57.344-3.751 1.031a7.433 7.433 0 00-2.768 2.775c-.664 1.165-.997 2.462-.997 3.893 0 2.118.736 3.905 2.204 5.364 1.47 1.459 3.24 2.188 5.312 2.188a7.63 7.63 0 003.842-1.006 7.196 7.196 0 002.757-2.753c.66-1.164.99-2.456.99-3.879 0-1.413-.33-2.693-.99-3.837-.66-1.143-1.59-2.06-2.785-2.745a7.548 7.548 0 00-3.814-1.031zm14.343 16.535H97.54V26.273h8.936v1.744h-7.153v16.075zm9.276-17.819h3.551c2.036 0 3.411.09 4.122.266 1.019.25 1.852.766 2.498 1.545.646.779.97 1.759.97 2.936 0 1.188-.316 2.166-.945 2.937-.631.771-1.5 1.29-2.607 1.556-.808.194-2.319.29-4.534.29h-1.272v8.285H108.6V26.273h-.002zm1.783 1.744v6.045l3.019.036c1.221 0 2.112-.11 2.679-.333a2.759 2.759 0 001.333-1.075 2.98 2.98 0 00.484-1.662c0-.596-.161-1.142-.484-1.637a2.67 2.67 0 00-1.28-1.058c-.528-.21-1.395-.316-2.601-.316h-3.15zm12.51-1.744h10.22v1.744h-8.437v5.585h8.365v1.744h-8.365v7.002h8.365v1.744h-10.148V26.273zm29.486 3.307l-1.406 1.079c-.776-1.009-1.708-1.774-2.795-2.295-1.088-.52-2.282-.78-3.582-.78-1.422 0-2.74.341-3.953 1.023-1.213.684-2.152 1.6-2.817 2.75-.668 1.152-1 2.446-1 3.884 0 2.17.745 3.985 2.237 5.438 1.491 1.453 3.373 2.18 5.643 2.18 2.498 0 4.586-.976 6.268-2.93l1.407 1.065a8.974 8.974 0 01-3.329 2.622c-1.329.617-2.813.927-4.454.927-3.12 0-5.58-1.037-7.383-3.114-1.511-1.751-2.266-3.867-2.266-6.346 0-2.608.917-4.802 2.746-6.584 1.83-1.78 4.123-2.67 6.88-2.67 1.665 0 3.167.328 4.51.987a8.718 8.718 0 013.294 2.764zm19.764 0l-1.407 1.079c-.775-1.009-1.707-1.774-2.795-2.295-1.087-.52-2.281-.78-3.581-.78-1.422 0-2.74.341-3.953 1.023-1.213.684-2.152 1.6-2.818 2.75-.667 1.152-1 2.446-1 3.884 0 2.17.746 3.985 2.238 5.438 1.491 1.453 3.373 2.18 5.643 2.18 2.498 0 4.586-.976 6.268-2.93l1.407 1.065a8.982 8.982 0 01-3.329 2.622c-1.329.617-2.814.927-4.454.927-3.12 0-5.58-1.037-7.383-3.114-1.511-1.751-2.266-3.867-2.266-6.346 0-2.608.916-4.802 2.745-6.584 1.831-1.78 4.124-2.67 6.881-2.67 1.665 0 3.167.328 4.509.987a8.714 8.714 0 013.295 2.764z" fill="#0083C1"/><path d="M39.645 6.46c.698 0 .979.493.625 1.095L30.207 24.81c-.505.813-1.017.623-1.372.02L18.688 7.558c-.354-.602-.072-1.094.627-1.094h20.33V6.46zM15.85 39.646c-.333-.56-.343-1.484-.02-2.05l6.061-10.434c.394-.715.763-1.06 1.662-1.06H28.3c.652 0 .977.473.652 1.037l-9.574 16.454c-.325.566-.844.57-1.175.01l-2.354-3.957zM8.59 25.58c-.654 0-.916-.46-.586-1.022l6.229-10.601c.332-.562.872-.562 1.203 0l6.229 10.601c.33.563.066 1.022-.588 1.022H8.59z" fill="#ED6824"/></g><defs><clipPath id="clip0_865_1402"><path fill="#fff" d="M0 0h180v51H0z"/></clipPath></defs></svg>
